assets/images/long-arrow.svg

<svg width="51" height="17" viewBox="0 0 51 17" fill="none" xmlns="http://www.w3.org/2000/svg">
<path d="M41.0183 0.3125C41.7181 3.26465 44.469 9.16895 49.8738 9.16895M49.8738 9.16895C41.4557 12.2431 40.5762 16.1608 40.5762 16.6865M49.8738 9.16895H18.0598M1.12646 9.16895H8.77735M8.77735 9.16895L1.12646 5.19499M8.77735 9.16895L1.12646 14.0354M8.77735 9.16895H13.4923M13.4923 9.16895L7.45128 5.19499M13.4923 9.16895L7.45128 14.0354M13.4923 9.16895H18.0598M18.0598 9.16895L13.4923 5.19499M18.0598 9.16895L13.4923 14.0354" stroke="#E67739" stroke-width="1.8"/>
</svg>

<svg width="51" height="17" fill="none" xmlns="http://www.w3.org/2000/svg"><path d="M41.018.313c.7 2.952 3.451 8.856 8.856 8.856m0 0c-8.418 3.074-9.298 6.992-9.298 7.517m9.298-7.517H18.06m-16.934 0h7.651m0 0l-7.65-3.974m7.65 3.974l-7.65 4.866m7.65-4.866h4.715m0 0l-6.04-3.974m6.04 3.974l-6.04 4.866m6.04-4.866h4.568m0 0l-4.568-3.974m4.568 3.974l-4.568 4.866" stroke="#E67739" stroke-width="1.8"/></svg>
